X:1
T:Title
%%score [ ( 1 2 ) ( 3 4 ) ] { ( 5 6 ) | ( 7 8 ) }
L:1/8
Q:1/4=120
M:4/4
K:F
V:1 treble nm="Midi_74"
V:2 treble 
V:3 bass nm="Midi_74"
V:4 bass 
V:5 treble nm="Org."
V:6 treble 
V:7 bass 
V:8 bass 
V:1
 (A6 B2) | c4 (f3 e) |{e} d8 || c8 | (c3 B) A4 | d4 =B4 | c8 || (E6 F2) | G4 (c3 B) |{B} A8 || A8 | %11
 (A3 G) F4 |"^William Henry Havergal\n(1793-1870)" B4 E4 | F8 |] x4 | %15
V:2
 (F6 G2) | A4 F4 | F8 || F8 | E4 F4 | F4 (G3 F) | E8 || (C6 D2) | E4 C4 | F8 || F8 | (F3 E) D4 | %12
 D4 C4 | C8 |] x4 | %15
V:3
 C8 | C4 C4 | B,8 || C8 | C4 C4 | D4 D4 | C8 || G,8 | G,4 G,4 | C8 || D8 | C4 (D3 C) | B,4 G,4 | %13
 A,8 |] x4 | %15
V:4
 F,8 | F,4 A,,4 | B,,8 || (A,,6 B,,2) | C,4 (F,3 E,) | D,4 G,4 | C,8 || C,8 | C,4 E,4 | F,8 || %10
 (D,6 E,2) | F,4 (B,3 A,) | (G,2 G,,2) C,4 | F,,8 |] x4 | %15
V:5
 A6 B2 | c4 f3 e |{e} d8 || c8 | c3 B A4 | d4 [D=B]4 | c8 || E6 F2 | G4 c3 B |{B} A8 || A8 | %11
 A3 G F4 | B4 [CE]4 | F8 |] x4 | %15
V:6
 F6 G2 | [FA]4 [Fc]4 | [FB]8 || [CF]8 | [CE]4 [CF]4 | [FA]4 G3 F | E8 || C6 D2 | [CE]4 [CG]4 | %9
 [CF]8 || [DF]8 | F3 E D3 C | [B,D]4 C3 B, | A,8 |] x4 | %15
V:7
 x8 | x8 | x8 || x8 | x8 | x8 | x8 || x8 | x8 | x8 || x8 | x8 | x4 G,4 | F,8 |] x4 | %15
V:8
 F,8 | F,4 A,,4 | B,,8 || A,,6 B,,2 | C,4 F,3 E, | D,4 G,4 | [C,G,]8 || C,8 | C,4 E,4 | F,8 || %10
 D,6 E,2 | F,4 B,3 A, | G,2 G,,2 C,4 | F,,8 |] x4 | %15

